icons/svg/sport/korfball.svg

<?xml version="1.0" encoding="UTF-8" standalone="no"?>
<!-- Created with Inkscape (http://www.inkscape.org/) -->

<svg
   xmlns:dc="http://purl.org/dc/elements/1.1/"
   xmlns:cc="http://creativecommons.org/ns#"
   xmlns:rdf="http://www.w3.org/1999/02/22-rdf-syntax-ns#"
   xmlns:svg="http://www.w3.org/2000/svg"
   xmlns="http://www.w3.org/2000/svg"
   xmlns:sodipodi="http://sodipodi.sourceforge.net/DTD/sodipodi-0.dtd"
   xmlns:inkscape="http://www.inkscape.org/namespaces/inkscape"
   version="1.0"
   width="580"
   height="580"
   id="svg2"
   sodipodi:version="0.32"
   inkscape:version="0.91 r"
   sodipodi:docname="korfball.svg"
   inkscape:output_extension="org.inkscape.output.svg.inkscape">
  <metadata
     id="metadata2975">
    <rdf:RDF>
      <cc:Work
         rdf:about="">
        <dc:format>image/svg+xml</dc:format>
        <dc:type
           rdf:resource="http://purl.org/dc/dcmitype/StillImage" />
        <cc:license
           rdf:resource="http://web.resource.org/cc/PublicDomain" />
        <dc:language>en</dc:language>
      </cc:Work>
    </rdf:RDF>
  </metadata>
  <sodipodi:namedview
     inkscape:window-height="739"
     inkscape:window-width="1332"
     inkscape:pageshadow="2"
     inkscape:pageopacity="0.0"
     guidetolerance="10.0"
     gridtolerance="10.0"
     objecttolerance="10.0"
     borderopacity="1.0"
     bordercolor="#666666"
     pagecolor="#ffffff"
     id="base"
     inkscape:zoom="0.32586207"
     inkscape:cx="326.70007"
     inkscape:cy="427.09746"
     inkscape:window-x="34"
     inkscape:window-y="1024"
     inkscape:current-layer="svg2"
     showgrid="false"
     inkscape:window-maximized="1" />
  <defs
     id="defs4">
    <inkscape:perspective
       sodipodi:type="inkscape:persp3d"
       inkscape:vp_x="0 : 290 : 1"
       inkscape:vp_y="0 : 1000 : 0"
       inkscape:vp_z="580 : 290 : 1"
       inkscape:persp3d-origin="290 : 193.33333 : 1"
       id="perspective2441" />
    <inkscape:perspective
       id="perspective3452"
       inkscape:persp3d-origin="30 : 20 : 1"
       inkscape:vp_z="60 : 30 : 1"
       inkscape:vp_y="0 : 1000 : 0"
       inkscape:vp_x="0 : 30 : 1"
       sodipodi:type="inkscape:persp3d" />
    <symbol
       viewBox="244.5 110 489 219.9"
       id="symbol-university">
      <path
         id="path4460"
         d="M79,43l57,119c0,0,21-96,104-96s124,106,124,106l43-133l82-17L0,17L79,43z" />
      <path
         id="path4462"
         d="M94,176l-21,39"
         stroke-width="20"
         stroke="#000000"
         fill="none" />
      <path
         id="path4464"
         d="M300,19c0,10.5-22.6,19-50.5,19S199,29.5,199,19s22.6-19,50.5-19S300,8.5,300,19z" />
      <path
         id="path4466"
         d="M112,216l-16-38L64,88c0,0-9-8-4-35s16-24,16-24"
         stroke-width="20"
         stroke="#000000"
         ill="none" />
    </symbol>
    <inkscape:perspective
       id="perspective4471"
       inkscape:persp3d-origin="372.04724 : 350.78739 : 1"
       inkscape:vp_z="744.09448 : 526.18109 : 1"
       inkscape:vp_y="0 : 1000 : 0"
       inkscape:vp_x="0 : 526.18109 : 1"
       sodipodi:type="inkscape:persp3d" />
    <inkscape:perspective
       id="perspective4668"
       inkscape:persp3d-origin="6 : 4 : 1"
       inkscape:vp_z="12 : 6 : 1"
       inkscape:vp_y="0 : 1000 : 0"
       inkscape:vp_x="0 : 6 : 1"
       sodipodi:type="inkscape:persp3d" />
  </defs>
  <g
     id="g1327">
    <path
       d="M 66.275,1.768 C 24.94,1.768 1.704,23.139 1.704,66.804 L 1.704,516.927 C 1.704,557.771 22.599,579.156 63.896,579.156 L 515.92,579.156 C 557.227,579.156 578.149,558.841 578.149,516.927 L 578.149,66.804 C 578.149,24.203 557.227,1.768 514.628,1.768 C 514.624,1.768 66.133,1.625 66.275,1.768 z "
       style="fill:#111;stroke:#eee;stroke-width:3.40799999"
       id="path1329" />
  </g>
  <path
     style="fill:#ffffff"
     inkscape:connector-curvature="0"
     d="m 249.72,41.707 c -53.183,0 -96.296,6.532 -96.296,14.59 l 0,10.213 c -12.596,4.001 -33.273,12.838 -54.471,31.612 0,0 -15.563,10.7 -14.591,107.969 l 10.582,0 0,332.202 33.562,0 0,-332.202 12.272,0 0,-32.099 c 0,0 -6.786,-11.768 17.194,-14.044 12.394,5.89 48.775,10.153 91.748,10.153 53.183,0 96.296,-6.531 96.296,-14.591 l 0,-99.213 c 10e-4,-8.059 -43.113,-14.59 -96.296,-14.59 z"
     id="path11" />
  <path
     style="fill:#ffffff"
     inkscape:connector-curvature="0"
     id="path10456"
     d="m 375.64699,243.15834 c -83.02422,0 -150.4144,64.17072 -150.4144,143.23492 0,79.0642 67.38708,143.21633 150.4144,143.21633 83.02734,0 150.41441,-64.15368 150.41441,-143.21633 0,-79.06265 -67.38863,-143.23492 -150.41441,-143.23492 z m -11.28669,11.90022 31.37965,25.94469 -8.29809,33.11177 -34.85629,16.1949 -44.09946,-11.68952 -6.55201,-26.95793 16.91223,-25.52638 45.51397,-11.07753 z m 78.13307,13.83531 40.39507,33.12727 -11.37501,41.42535 -36.91842,5.52018 -34.5418,-34.54179 5.52019,-31.37656 36.91997,-14.15445 z M 297.1111,275.0446 c -1.4362,5.64104 -2.87861,11.29136 -4.21255,16.93083 l -20.30212,5.22271 c 1.64072,-2.97156 3.70594,-5.73398 6.16624,-8.29653 2.15354,-2.77016 4.40468,-5.45047 7.58386,-7.60245 3.18072,-2.4603 6.35525,-4.40778 10.76457,-6.25456 z m 6.46371,54.35742 40.69254,11.37192 10.36175,44.08241 -42.44014,32.8143 -36.91842,-1.03183 -9.32838,-49.00921 37.63265,-38.22759 z m 173.05908,24.99961 20.70182,34.87488 -28.60019,47.26005 -35.88658,-3.38989 -13.12263,-30.0333 22.04973,-42.45719 34.85785,-6.25455 z m -243.50603,11.89868 21.4393,6.86652 11.37345,47.57765 -13.83995,24.91595 c -3.27834,1.32775 -6.36145,-2.15819 -9.64288,-9.33148 -3.58819,-7.79146 -8.40654,-23.48128 -10.0457,-35.17081 -1.53847,-11.79331 -1.43621,-23.27057 0.71578,-34.85783 z m 283.60208,19.16646 c 0.10227,11.89558 -0.82889,21.94437 -2.77637,32.09698 -2.35803,10.04261 -5.84707,19.17576 -9.32992,26.55667 -3.48284,6.96878 -6.66976,11.90487 -10.36175,15.18475 l -16.59772,-19.29041 29.00301,-49.00612 10.06275,-5.54187 z m -153.90811,7.89837 46.24836,12.10628 14.76334,34.75094 -25.52793,33.53163 -57.62026,-12.09233 -18.97434,-37.94871 41.11083,-30.34781 z m -26.85412,76.89362 61.11549,10.77853 17.52575,26.85568 -4.40313,11.79176 c -8.51034,1.2379 -17.13687,2.15509 -26.26074,2.3596 -9.43218,0.20605 -19.47478,-0.009 -28.60174,-1.03184 -9.73894,-1.43466 -18.76675,-4.00341 -26.66047,-6.56906 -7.89527,-2.76551 -13.94066,-5.83468 -19.27182,-9.62584 l -0.71733,-13.83841 27.27399,-20.72042 z" />
</svg>

<svg width="580" height="580" viewBox="0 0 580 580" fill="none" xmlns="http://www.w3.org/2000/svg">
<g clip-path="url(#clip0)">
<path d="M66.2751 1.76815C24.9401 1.76815 1.7041 23.1391 1.7041 66.8041V516.927C1.7041 557.771 22.5991 579.156 63.8961 579.156H515.92C557.227 579.156 578.149 558.841 578.149 516.927V66.8041C578.149 24.2031 557.227 1.76815 514.628 1.76815C514.624 1.76815 66.1331 1.62515 66.2751 1.76815Z" fill="#111111" stroke="#EEEEEE" stroke-width="3.408"/>
<path d="M249.72 41.707C196.537 41.707 153.424 48.239 153.424 56.297V66.51C140.828 70.511 120.151 79.348 98.9531 98.122C98.9531 98.122 83.3901 108.822 84.3621 206.091H94.9441V538.293H128.506V206.091H140.778V173.992C140.778 173.992 133.992 162.224 157.972 159.948C170.366 165.838 206.747 170.101 249.72 170.101C302.903 170.101 346.016 163.57 346.016 155.51V56.297C346.017 48.238 302.903 41.707 249.72 41.707V41.707Z" fill="white"/>
<path d="M375.647 243.158C292.623 243.158 225.232 307.329 225.232 386.393C225.232 465.457 292.62 529.609 375.647 529.609C458.674 529.609 526.061 465.456 526.061 386.393C526.061 307.33 458.673 243.158 375.647 243.158V243.158ZM364.36 255.058L395.74 281.003L387.442 314.115L352.585 330.31L308.486 318.62L301.934 291.662L318.846 266.136L364.36 255.058V255.058ZM442.493 268.894L482.888 302.021L471.513 343.446L434.595 348.967L400.053 314.425L405.573 283.048L442.493 268.894V268.894ZM297.111 275.044C295.675 280.685 294.232 286.336 292.898 291.975L272.596 297.198C274.237 294.226 276.302 291.464 278.762 288.901C280.916 286.131 283.167 283.451 286.346 281.299C289.527 278.839 292.702 276.891 297.111 275.044ZM303.575 329.402L344.267 340.774L354.629 384.856L312.189 417.671L275.27 416.639L265.942 367.629L303.575 329.402V329.402ZM476.634 354.402L497.336 389.276L468.735 436.536L432.849 433.147L419.726 403.113L441.776 360.656L476.634 354.402V354.402ZM233.128 366.3L254.567 373.167L265.94 420.744L252.1 445.66C248.822 446.988 245.739 443.502 242.458 436.329C238.869 428.537 234.051 412.848 232.412 401.158C230.873 389.365 230.976 377.887 233.128 366.3ZM516.73 385.467C516.832 397.362 515.901 407.411 513.953 417.564C511.595 427.606 508.106 436.739 504.623 444.12C501.141 451.089 497.954 456.025 494.262 459.305L477.664 440.015L506.667 391.008L516.73 385.467ZM362.822 393.365L409.07 405.471L423.833 440.222L398.305 473.754L340.685 461.662L321.711 423.713L362.822 393.365V393.365ZM335.968 470.259L397.083 481.037L414.609 507.893L410.206 519.685C401.695 520.923 393.069 521.84 383.945 522.044C374.513 522.25 364.47 522.035 355.343 521.012C345.604 519.578 336.576 517.009 328.683 514.443C320.787 511.678 314.742 508.609 309.411 504.817L308.694 490.979L335.968 470.259V470.259Z" fill="white"/>
</g>
<defs>
<clipPath id="clip0">
<path d="M0 0H580V580H0V0Z" fill="white"/>
</clipPath>
</defs>
</svg>
